X:1
T:Gratitude
T:C minor                    Alexander Gillet, 1795
T:Transcribed from The New York Collection of Sacred Harmony, 1795.
T:Isaac Watts, 1719 (Psalm 116, Part 2)          86. 86. (C. M.)  
%%score [ 1 2 3 4 ]
L:1/8
Q:1/4=130
M:4/4
K:Eb
V:1 treble nm="Tr.\n1" snm="Tr.\n1"
V:2 treble nm="Tr.\n2" snm="Tr.\n2"
V:3 treble-8 nm="T." snm="T."
V:4 bass nm="B." snm="B."
V:1
"_1. What  shall  I  render   to ______  my  God   For  all  his  kind  – ness   shown?                    My  feet  shall  vi–sit    thine  a      –       bode,       My  feet  shall  vi  –  sit   thine   a    –    bode,\n2. How  hap – py  all  thy ser    –   vants  are!  How great thy grace   to     me!                         My life, which thou hast made thy          care,         My  life, which thou hast made  thy        care,  \n3. Now  I  am  thine,  for  ev     –     er  thine,   Nor  shall my  pur – pose  move;                      Thy hand hath loosed my bonds of         pain,        Thy hand hath loosed my bonds  of        pain," G8 | %1
 c2 c2 d2 f2 | (e4 d2) B2 | c8 | =B4 c2 e2 | d4 (d2 c2) | B6 z2 | z4 z2 G2 | c2 c2 c2 cB | %9
 (E2 F2) G4 | c6 d2 | e2 e2 g2 g2 | (f2 e2) (d2 c2) | =B8 | G4 (c3 d | e3 f g4 | a2) g2 f2 e2 | %17
 d8 | g4 e2 fe | d6 =B2 | c8 |] %21
V:2
"_1. What  shall  I  render   to ______  my  God   For  all  his  kind  – ness   shown?                                                                        My      feet shall visit thine abode,   My  feet  shall  visit  thine abode,\n2. How  hap – py  all  thy ser    –   vants  are!  How great thy grace   to     me!                                                               My life which thou hast made thy care, My life which thou hast made thy care,\n3. Now  I  am  thine,  for  ev     –     er  thine,   Nor  shall my  pur – pose  move;                                                        Thy hand hath loosed my bonds of pain, Thy hand hath loosed my bonds of pain," G8 | %1
 E2 E2 G2 GA | G6 G2 | G8 | G4 G2 E2 | F4 ^F4 | G6 z2 | z8 | z8 | z4 z2 E2 | G2 G2 G2 G2 | %11
 c2 c2 e2 e2 | d2 c2 c2 c2 | G2 G2 G4 | %14
"_1. My  songs _________________ address thy throne, My songs ad–dress  thy throne.\n2. Lord, I ____________________ de – vote  to  thee,  Lord,  I  de  – vote    to    thee.\n3. And  bound _______________  me  with  thy  love, And  bound me with  thy  love." B4 (E3 F | %15
 G3 A B4 | c2) c2 d2 c2 | =B8 | G4 A2 A2 | G6 G2 | G8 |] %21
V:3
"_1. What  shall  I  render   to ______  my  God   For  all  his  kind  – ness   shown?                                          My        feet  shall  vi – sit  thine      a – bode,  My feet shall    visit  thine  a – bode,\n2. How  hap – py  all  thy ser    –   vants  are!  How great thy grace   to     me!                                               My        life, which thou hast made thy care, My life, which thou hast made thy care,\n3. Now  I  am  thine,  for  ev     –     er  thine,   Nor  shall my  pur – pose  move;                                           Thy       hand hath loosed my bonds of pain, Thy hand hath loosed my bonds of pain," c8 | %1
 G2 G2 B2 G2 | (e4 d2) d2 | c8 | d4 e2 c2 | (d2 c2) B4 | B6 z2 | z8 | z4 z2 c2 | e2 e2 e2 e>d | %10
 c6 d2 | G2 G2 c2 c2 | c2 c2 f2 e2 | d8 | g4 (e3 d | c2 BA G4 | F2) E2 D2 C2 | G8 | e4 c2 c2 | %19
 =B6 d2 | c8 |] %21
V:4
 C,8 | C,2 C,2 G,2 G,F, | (E,3 F, G,2) G,,2 | C,8 | G,4 C2 C2 | B,4 B,,4 | %6
 E,6"_1. My  feet shall visit  thine   a      –      bode, __________________  My  feet shall  vi – sit     thine    a     –    bode,\n2. My life, which thou hast made thy     care, ___________________  My life, which thou hast made   thy         care, \n3. Thy hand hath loosed my bonds of    pain, ___________________  Thy hand hath loosed my bonds of         pain," C,2 | %7
 G,2 G,2 G,2 E,2 | F,4 [G,,G,]4 | C,8- | C,6 G,2 | [C,C]2 [C,C]2 [C,C]2 [C,C][B,,B,] | %12
 [A,,A,]4 [F,,F,]4 | [G,,G,]8 | G,4 (C3 B, | A,2 G,F, E,4 | F,2) E,2 D,2 C,2 | [G,,G,]8 | %18
 E,4 A,2 F,2 | G,6 G,2 | C,8 |] %21

